X:184
T:Gordon of Lismore. Le4.184
Q:1/2=70
T:Caledonian Quadrilles #5. Le4.184
L:1/8
B:L.Leadley MS#4 c1850
Z:vmp.Mike Hicken 2016 www.village-music-project.org.uk
M:2/4
K:A
!p!"^Allegro Moderato"A2E>A|c>Ae>c|a>ce>c|B/B/B B2|A2E>A|c>Ae>c|d>Be>c|A/A/A A2 ||
!f!a2 e>c|a>ce>c|a>ce>c|B/B/B TB2|a2 e>c|A>ec>a|e>cB>c|A/A/A A2 "_fine"||
!p!A//B//c3/ A>c|(B//c//d3/) B>d|c//d//e3/ A>e|(G//A//B3/) E>B|\
(A//B//c3/) A>c|(A//c//d3/) B>d|c>ae>c|A/A/A A2 "_D.C."||
a//g//f3/ f>f|(e//f//g3/) g>g|(f//e//d3/) d>d|(c//d//e3/) e>e|\
(d//c//B3/) B>B|c>ae>c|TB>AB>c|A/A/A A2 "_D Capo"|]

